X:1
T:Isaac Watts, 1719 (Psalm 118)   66. 86. (S. M.)
T:D Major Oliver Holden, 1796
T:Lord's Day
T:No copyright. Transcribed from The Union Harmony, 1796.
%%score [ 1 2 3 4 ]
L:1/8
M:3/4
K:D
V:1 treble nm="Treble" snm="Tr."
V:2 treble nm="Counter" snm="C."
V:3 treble-8 nm="Tenor" snm="T."
V:4 bass nm="Bass" snm="B."
V:1
 d2 A2 d2 | (B2 A2) A2 | A4 d2 | d4 A2 | A4 ^G2 | A6 ||[M:2/4] z4 | z4 | c>e ee | fd fd | A3 d | %11
w: ||||||||Let * us re-|joice, and sing and|pray; *|
 dd cB | A4 | z4 ||[M:3/4] d2 d2 d2 | (f2 e2) d2 | d4 A2 | Ad d2 c2 | (B2 A2) z2 ||[M:2/4] d2 dd | %20
w: |||||||||
 d3 d | A2 G2 | F3 A | AB A^G | A4 | d2 dd | d3 c | d2 d2 | d3 e | f2 e2 | d2 c2 | d4 |] %32
w: ||||||||||||
V:2
 F2 F2 F2 | (G2 A2) A2 | A4 F2 | (G2 A2) B2 | A4 B2 | c6 ||[M:2/4] z4 | z4 | z4 | FA FA | F3 F | %11
w: 1.~This is the|glor- * ious|day That|our * Re-|dee- mer|made.||||Let * us re-|joice; Let|
 BA GD | (D2 C2) | z4 ||[M:3/4] F2 A2 F2 | (F2 E2) F2 | G4 E2 | FA B2 A2 | (G2 A2) z2 || %19
w: all the church be|glad. *||Ho- san- na|to * the|King, of|Da- vid's ro- yal|blood, *|
[M:2/4] F2 FA | F3 F | F2 G2 | A3 F | AG E^G | A4 | D2 DD | D3 E | F2 F2 | F3 F | AF G2 | A2 E2 | %31
w: Bless Him, ye|saints, He|comes to|bring Sal-|va- tion from your|God,|Bless Him, ye|saints, He|comes to|bring Sal-|va- * tion|from your|
 F4 |] %32
w: God.|
V:3
 A2 F2 D2 | (G2 F2) E2 | F4 A2 | (B2 A2) d2 | F4 B2 | A6 ||[M:2/4] z4 | c>e ee | A3 A | d2 A2 | %10
w: |||||||Let * us re-|joice, and|sing and|
 d3 A | BA GF | (F2 E2) | z4 ||[M:3/4] A2 F2 A2 | (d2 c2) d2 | B4 c2 | dA B2 A2 | (G2 F2) z2 || %19
w: pray; *|||||||||
[M:2/4] A2 AA | A3 A | d2 ce | d3 f | ed cB | A4 | d2 dd | d3 e | f2 f2 | f3 e | dA Bg | f2 e2 | %31
w: ||||||||||||
 d4 |] %32
w: |
V:4
 D,2 D,2 D,2 | D,4 A,,2 | D,4 D,2 | D,4 D,2 | D,4 E,2 | A,,6 ||[M:2/4] A,2 A,A, | A,4- | A,3 A, | %9
w: ||||||Let us re-|joice~|_ and|
 D,2 D,2 | D,3 D, | G,F, E,D, | A,,4 | z4 ||[M:3/4] D,2 D,2 D,2 | A,4 D,2 | G,4 A,2 | %17
w: sing and|pray; *|||||||
 F,D, B,,2 C,2 | D,4 z2 ||[M:2/4] D,2 D,D, | D,3 D, | D,2 A,,2 | D,3 D, | C,D, E,E, | A,,4 | %25
w: ||||||||
 D2 DD | D3 A, | D2 D2 | D3 A, | F,2 G,2 | A,2 A,,2 | D,4 |] %32
w: |||||||

